X:1
T:Title
%%score { 1 | ( 2 3 ) }
L:1/8
Q:1/4=100
M:6/8
K:A
V:1 treble nm="Grand Piano"
V:2 bass 
V:3 bass 
V:1
 [CE][CE][CE] [CF]2 [CE] | [DA]2 [DG] [DG]2 [EA] | [DB]BB B2 G | [CA]6 | [CE][CE][CE] [CF]2 [CE] | %5
w: George~C.~Stebbins * * * *|||||
 [DA]2 [DG] [DG]2 [EA] | B2 B c2 B | [CA]6 | [FA][FA][FA] [Ac]2 [GB]/[FA]/ | [FA]2 [^EG] [EG]2 C | %10
w: |||||
 FFF [FA]2 [FB] | [^Ec]3- [Ec]2 [Ec]/[Ec]/ | [Fd]2 [Ec] [DB]2 [CA]/[DB]/ | [Ec]2 B A2 A | %14
w: ||||
 BBF G2 E | [CA]6 |] %16
w: ||
V:2
 [A,,A,][A,,A,][A,,A,] [A,,A,]2 [A,,A,] | [B,,E,]2 [B,,E,] [B,,E,]2 [C,A,] | %2
 z D[E,G,D] [E,A,C]2 [E,B,D] | [A,,A,]6 | [A,,A,]2 [A,,A,] [A,,A,]2 [A,,A,] | %5
 [B,,E,]2 [B,,E,] [B,,E,]2 [C,A,] | [E,G,E]2 [E,G,E] [E,A,E]2 [E,G,D] | [A,,A,]6 | %8
 [F,C]2 [F,C] [F,C]2 [F,C] | [C,C]2 [C,C] [C,C]2 [^E,B,] | CC[F,A,C] [D,A,]2 [D,F,] | %11
 [C,G,]3- [C,G,]2 [C,G,] | [B,,B,]2 [B,,B,] [E,G,]2 [E,A,] | [A,,A,]2 [E,G,D] [F,C]2 [F,C] | %14
 DD[D,B,D] [E,B,D]2 [E,G,D] | [A,,A,]6 |] %16
V:3
 x6 | x6 | .[E,G,]3 z3 | x6 | x6 | x6 | x6 | x6 | x6 | x6 | .[F,A,]3 z3 | x6 | x6 | x6 | %14
 .[D,F,]3 z3 | x6 |] %16

